icons/desktop/16/translate-16.svg

<svg width="16" height="16" viewBox="0 0 16 16" fill="none" xmlns="http://www.w3.org/2000/svg">
<g clip-path="url(#clip0_8069_32716)">
<path fill-rule="evenodd" clip-rule="evenodd" d="M5.44182 0.5C5.85582 0.5 6.19182 0.836 6.19182 1.25V2.01172C7.60805 2.05304 9.02037 2.22072 10.4047 2.51562C10.8097 2.60163 11.0679 3.00025 10.9819 3.40625C10.9068 3.75895 10.5961 3.99882 10.2504 3.99902C10.1987 3.99899 10.1469 3.99531 10.0942 3.9834C9.80932 3.92277 9.52286 3.86852 9.23576 3.81934L9.02483 4.41406C8.47484 5.95998 7.5937 7.38868 6.48576 8.59863C7.30618 9.40027 8.23112 10.0578 9.2299 10.5557L10.5453 7.45898C10.6624 7.18213 10.9339 7.00202 11.2348 7.00195H12.0639C12.3649 7.00195 12.6363 7.18198 12.7543 7.45898L15.9408 14.9678L15.9643 15.0312C15.9693 15.0491 15.975 15.0671 15.9789 15.0859C15.9919 15.1409 15.9984 15.1989 15.9985 15.2588C15.9985 15.6687 15.6671 16.0008 15.2572 16.001C14.9552 16.001 14.6965 15.8176 14.5805 15.5586L13.6889 13.501H9.60881L8.77678 15.4531L8.73967 15.543C8.6277 15.8158 8.35913 16.0077 8.04631 16.0078C7.63231 16.0078 7.29631 15.6718 7.29631 15.2578C7.29634 15.1539 7.31788 15.0567 7.35686 14.9678L8.64104 11.9395C7.45903 11.3619 6.36678 10.5891 5.40178 9.64062C4.50792 10.3984 3.52482 11.0183 2.47502 11.4893C2.38507 11.5292 2.28503 11.5517 2.1801 11.5518C1.7701 11.5518 1.43694 11.2196 1.43694 10.8096C1.4371 10.5178 1.60916 10.2714 1.85393 10.1504L1.90666 10.1201C2.80057 9.71216 3.6398 9.18107 4.40373 8.53516C4.24239 8.33214 4.09027 8.12194 3.94182 7.90918C3.91797 7.87483 3.89304 7.84124 3.86955 7.80664C3.27406 6.93473 2.78702 5.98864 2.43303 4.99902H4.05119C4.13121 5.19015 4.21736 5.37882 4.30803 5.56543C4.63562 6.23604 5.02756 6.87724 5.48479 7.46973C6.40773 6.43078 7.14479 5.22002 7.60979 3.91211L7.71526 3.61328C5.44441 3.3856 3.13666 3.5085 0.905685 3.9834C0.497896 4.06816 0.102126 3.81099 0.0160369 3.40625C-0.0699631 3.00125 0.188185 2.60163 0.593185 2.51562C1.94046 2.2287 3.31409 2.06348 4.69182 2.0166V1.25C4.69182 0.836041 5.02787 0.500066 5.44182 0.5ZM10.2455 12H13.0522L11.6488 8.69434L10.2455 12Z" fill="black"/>
</g>
<defs>
<clipPath id="clip0_8069_32716">
<rect width="16" height="16" fill="white"/>
</clipPath>
</defs>
</svg>

<!-- This Source Code Form is subject to the terms of the Mozilla Public
   - License, v. 2.0. If a copy of the MPL was not distributed with this
   - file, You can obtain one at http://mozilla.org/MPL/2.0/. -->
<svg xmlns="http://www.w3.org/2000/svg" width="16" height="16" fill="context-fill" fill-opacity="context-fill-opacity" viewBox="0 0 16 16">
    <path fill-rule="evenodd" d="M5.442.5a.75.75 0 0 1 .75.75v.762a23.5 23.5 0 0 1 4.213.504.75.75 0 0 1-.31 1.467q-.428-.09-.86-.164l-.21.595A12.4 12.4 0 0 1 6.485 8.6a10.9 10.9 0 0 0 2.745 1.957l1.315-3.097a.75.75 0 0 1 .69-.457h.829a.75.75 0 0 1 .69.457l3.187 7.509.023.063.015.055q.02.083.02.173a.742.742 0 0 1-1.418.3l-.892-2.058h-4.08l-.832 1.952-.037.09a.75.75 0 1 1-1.383-.575L8.64 11.94a12.4 12.4 0 0 1-3.24-2.3 12.3 12.3 0 0 1-2.926 1.85.743.743 0 0 1-1.038-.68c0-.292.172-.539.417-.66l.053-.03a10.8 10.8 0 0 0 2.497-1.585 13 13 0 0 1-.462-.626l-.072-.102a12.4 12.4 0 0 1-1.437-2.808H4.05a11.2 11.2 0 0 0 1.434 2.47A10.9 10.9 0 0 0 7.61 3.913l.105-.299a22.2 22.2 0 0 0-6.81.37.75.75 0 1 1-.312-1.467 23.5 23.5 0 0 1 4.099-.5V1.25a.75.75 0 0 1 .75-.75M10.246 12h2.806L11.65 8.694z" clip-rule="evenodd" />
</svg>
